X: 3315
T: Hornpipe
B:[[Notböcker/Melodier til gamle danske Almuedanse for Violin solo]]
O:Danmark
Z:Søren Bak Vestergaard
M: 2/4
L: 1/16
K: D
!downbow!FG|!4!AFDF AFDF|A2d2d2 FG|AFDF AFDF|\
G2E2E2 FG|AFDF AFDF|A2d2d2 fg|afdf gece|(.d2.d2)d2:|\
|:!downbow!ag|f2f2f2 af|e2e2e2 ag|f2f2f2 gf|edcB A2ag|\
fdfd fdaf|ecec ecag|fafd egec|(.d2.d2)d2:|
(:musicend:)
(:music:)
